X:5017
T:Bat Fowling
M:6/8
L:1/8
Q:180
C:Aidan Crossey
R:Jig
K:D
|:DEF A2A|BAG A2A|DEF A2A|BAF E2D|
DEF A2A|BAG ABc|dfd cAF|GBc d3:||
|:def a2a|cde g2g|fef afd|c2d e3|
def a2a|cde g2g|fef afd|efe d3:||
